dist/img/arrow-page-left.svg

<svg width="46" height="46" viewBox="0 0 46 46" fill="none" xmlns="http://www.w3.org/2000/svg">
<path d="M23 0.480623C10.5969 0.480622 0.480655 10.5581 0.480654 23C0.480653 35.4419 10.5969 45.5194 23 45.5194C35.4031 45.5194 45.5194 35.4031 45.5194 23C45.5194 10.5969 35.4031 0.480624 23 0.480623ZM23 42.3411C12.3411 42.3411 3.65895 33.6589 3.65895 23C3.65895 12.3411 12.3411 3.65892 23 3.65892C33.6589 3.65892 42.3411 12.3411 42.3411 23C42.3411 33.6589 33.6589 42.3411 23 42.3411Z" fill="#380F54"/>
<path d="M28.1938 11.7597C27.8837 11.4496 27.4961 11.2946 27.0698 11.2946C26.6822 11.2946 26.2558 11.4496 25.9458 11.7597L15.7132 21.9922C15.4031 22.3023 15.2481 22.6899 15.2481 23.1163C15.2481 23.5426 15.4031 23.9302 15.7132 24.2403L25.9458 34.4729C26.5659 35.093 27.5737 35.093 28.1938 34.4729C28.814 33.8527 28.814 32.845 28.1938 32.2248L19.0853 23.1163L28.1938 14.0078C28.814 13.3876 28.814 12.3798 28.1938 11.7597Z" fill="#380F54"/>
</svg>

<svg width="46" height="46" fill="none" xmlns="http://www.w3.org/2000/svg"><path d="M23 .48C10.597.48.48 10.559.48 23S10.598 45.52 23 45.52c12.403 0 22.52-10.117 22.52-22.52C45.52 10.597 35.402.48 23 .48zm0 41.861C12.341 42.341 3.659 33.66 3.659 23S12.341 3.659 23 3.659 42.341 12.34 42.341 23 33.66 42.341 23 42.341z" fill="#380F54"/><path d="M28.194 11.76a1.552 1.552 0 00-1.124-.465c-.388 0-.814.155-1.124.465L15.713 21.992c-.31.31-.465.698-.465 1.124 0 .427.155.814.465 1.124l10.233 10.233a1.59 1.59 0 002.248-2.248l-9.109-9.109 9.109-9.108a1.59 1.59 0 000-2.248z" fill="#380F54"/></svg>
